X: 5120
T: Bridget Flynn's
R: reel
M: 4/4
K: Edorian
FA|BE E2 DEFA|BE E2 D2 FA|BE E2 BAFD|ABAF E2:|
FA|Beed e3 d|Bdef gfed|Bddc d3 z|BcdB ADFA|
Beed e3 d|Bdef gfef|g2 g2 f2 f/d/f|BcdB A2||

